X:294
T:Atholl Braes #1
D:Silly Wizard, Silly Wizard (1976)
O:Scotland
Z:Nigel Gatherer <gatherer@argonet.co.uk>
M:4/4
L:1/8
K:G
z2|D3 E G3 B|AGAB AG E2|D3 E G3 B|AGAB G2:|
AB|c2 ec B2 dB|AGAB AG E2|c2 ec B2 dB|AGAB G2 AB|
c2 ec B2 dB|AGAB AG E2|D3 E G3 B|AGAB G2|]
<end>
<start>
